svg/sequence.svg

<svg width="24" height="24" viewBox="0 0 24 24"  xmlns="http://www.w3.org/2000/svg">
<path d="M13.5 4.5C13.5 5.05521 13.1984 5.53997 12.75 5.79933V13.592L19.8165 18.1644C20.0215 18.0593 20.2538 18 20.5 18C21.3284 18 22 18.6716 22 19.5C22 20.3284 21.3284 21 20.5 21C19.6716 21 19 20.3284 19 19.5C19 19.4745 19.0006 19.4491 19.0019 19.424L12 14.8933L4.99811 19.424C4.99936 19.4491 5 19.4745 5 19.5C5 20.3284 4.32843 21 3.5 21C2.67157 21 2 20.3284 2 19.5C2 18.6716 2.67157 18 3.5 18C3.74619 18 3.97853 18.0593 4.1835 18.1644L11.25 13.592V5.79933C10.8016 5.53997 10.5 5.05521 10.5 4.5C10.5 3.67157 11.1716 3 12 3C12.8284 3 13.5 3.67157 13.5 4.5Z" />
<path d="M8.07032 11.8074C8.5216 10.9986 9.21144 10.3487 10.0457 9.94651L9.39427 8.59535C8.28191 9.13165 7.36213 9.99811 6.76043 11.0765C6.15872 12.1549 5.90442 13.3927 6.03222 14.6209C6.06865 14.9711 6.13562 15.3155 6.23154 15.6507L7.56905 14.7853C7.55032 14.6796 7.53533 14.573 7.52416 14.4657C7.42832 13.5445 7.61904 12.6162 8.07032 11.8074Z" />
<path d="M9.46635 17.719C9.90652 18.0188 10.399 18.2399 10.922 18.369C11.8212 18.5908 12.767 18.5298 13.6302 18.1943C13.9488 18.0705 14.2505 17.9115 14.5301 17.7214L15.8678 18.5869C15.3653 19.0107 14.7935 19.3515 14.1737 19.5924C13.0226 20.0398 11.7616 20.1211 10.5627 19.8253C9.66287 19.6033 8.83091 19.1769 8.12903 18.5843L9.46635 17.719Z" />
<path d="M17.7685 15.6507C17.935 15.0687 18.0135 14.4615 17.9981 13.8492C17.9697 12.7199 17.6232 11.6238 17.0015 10.6856L18.1927 9.4944H14.6927V12.9944L15.9117 11.7754C16.277 12.4177 16.4799 13.1427 16.4986 13.8869C16.5062 14.1895 16.4832 14.4903 16.431 14.7853L17.7685 15.6507Z" />
</svg>

<svg width="24" height="24" viewBox="0 0 24 24" xmlns="http://www.w3.org/2000/svg"><path d="M13.5 4.5a1.5 1.5 0 0 1-.75 1.3v7.792l7.067 4.572a1.5 1.5 0 1 1-.815 1.26L12 14.894l-7.002 4.53L5 19.5a1.5 1.5 0 1 1-.816-1.336l7.066-4.572V5.799A1.5 1.5 0 1 1 13.5 4.5z"/><path d="M8.07 11.807a4.5 4.5 0 0 1 1.976-1.86l-.652-1.352a6 6 0 0 0-3.162 7.056l1.337-.866a4.505 4.505 0 0 1 .501-2.978zM9.466 17.719a4.503 4.503 0 0 0 5.064.002l1.338.866a5.998 5.998 0 0 1-7.739-.003l1.337-.865zM17.768 15.65a6 6 0 0 0-.767-4.964l1.192-1.192h-3.5v3.5l1.219-1.219a4.5 4.5 0 0 1 .519 3.01l1.337.866z"/></svg>
